src/16/panel/lyricfier-tray.svg

<svg xmlns="http://www.w3.org/2000/svg" width="16" height="16" version="1.1">
 <defs>
  <style id="current-color-scheme" type="text/css">
   .ColorScheme-Text { color:#dfdfdf; } .ColorScheme-Highlight { color:#4285f4; }
  </style>
 </defs>
 <path style="fill:currentColor" class="ColorScheme-Text" d="M 1.7011719 1 C 1.3133719 1 1 1.3133719 1 1.7011719 L 1 14.298828 C 1 14.686453 1.3133719 15 1.7011719 15 L 14.298828 15 C 14.686453 15 15 14.686453 15 14.298828 L 15 1.7011719 C 15 1.3133719 14.686453 1 14.298828 1 L 1.7011719 1 z M 7.5 2 C 7.777 2 8 2.3345 8 2.75 L 8 13.25 C 8 13.666 7.777 14 7.5 14 C 7.223 14 7 13.666 7 13.25 L 7 2.75 C 7 2.3345 7.223 2 7.5 2 z M 3.5 3 C 3.777 3 4 3.3705312 4 3.8320312 L 4 12.167969 C 4 12.628969 3.777 13 3.5 13 C 3.223 13 3 12.628969 3 12.167969 L 3 3.8320312 C 3 3.3705313 3.223 3 3.5 3 z M 9.5 3 C 9.777 3 10 3.3193436 10 3.7148438 L 10 12.285156 C 10 12.681156 9.777 13 9.5 13 C 9.223 13 9 12.681156 9 12.285156 L 9 3.7148438 C 9 3.3193438 9.223 3 9.5 3 z M 5.5 4 C 5.777 4 6 4.3575812 6 4.8007812 L 6 11.199219 C 6 11.642219 5.777 12 5.5 12 C 5.223 12 5 11.642219 5 11.199219 L 5 4.8007812 C 5 4.3575812 5.223 4 5.5 4 z M 11.5 4 C 11.777 4 12 4.2984687 12 4.6679688 L 12 11.332031 C 12 11.702031 11.777 12 11.5 12 C 11.223 12 11 11.702031 11 11.332031 L 11 4.6679688 C 11 4.2984687 11.223 4 11.5 4 z"/>
</svg>

<svg xmlns="http://www.w3.org/2000/svg" width="16" height="16"><defs><style id="current-color-scheme" type="text/css"></style></defs><path d="M1.701 1A.7.7 0 0 0 1 1.701V14.3a.7.7 0 0 0 .701.701H14.3a.7.7 0 0 0 .701-.701V1.7A.7.7 0 0 0 14.299 1H1.7zM7.5 2c.277 0 .5.334.5.75v10.5c0 .416-.223.75-.5.75s-.5-.334-.5-.75V2.75c0-.416.223-.75.5-.75zm-4 1c.277 0 .5.37.5.832v8.336c0 .461-.223.832-.5.832s-.5-.371-.5-.832V3.832C3 3.371 3.223 3 3.5 3zm6 0c.277 0 .5.32.5.715v8.57c0 .396-.223.715-.5.715s-.5-.319-.5-.715v-8.57C9 3.319 9.223 3 9.5 3zm-4 1c.277 0 .5.358.5.8v6.4c0 .442-.223.8-.5.8s-.5-.358-.5-.8V4.8c0-.442.223-.8.5-.8zm6 0c.277 0 .5.298.5.668v6.664c0 .37-.223.668-.5.668s-.5-.298-.5-.668V4.668c0-.37.223-.668.5-.668z" fill="currentColor" color="#bebebe"/></svg>
